svg/lightbulb_off.svg

<svg xmlns="http://www.w3.org/2000/svg" viewBox="0 0 24 24"><path d="M12 2C9.76 2 7.78 3.05 6.5 4.68l9.81 9.82C17.94 13.21 19 11.24 19 9a7 7 0 0 0-7-7M3.28 4 2 5.27 5.04 8.3C5 8.53 5 8.76 5 9c0 2.38 1.19 4.47 3 5.74V17a1 1 0 0 0 1 1h5.73l4 4L20 20.72zM9 20v1a1 1 0 0 0 1 1h4a1 1 0 0 0 1-1v-1z"/></svg>

<?xml version="1.0" encoding="UTF-8"?><!DOCTYPE svg PUBLIC "-//W3C//DTD SVG 1.1//EN" "http://www.w3.org/Graphics/SVG/1.1/DTD/svg11.dtd"><svg xmlns="http://www.w3.org/2000/svg" xmlns:xlink="http://www.w3.org/1999/xlink" version="1.1" id="mdi-lightbulb-off" width="24" height="24" viewBox="0 0 24 24"><path d="M12,2C9.76,2 7.78,3.05 6.5,4.68L16.31,14.5C17.94,13.21 19,11.24 19,9A7,7 0 0,0 12,2M3.28,4L2,5.27L5.04,8.3C5,8.53 5,8.76 5,9C5,11.38 6.19,13.47 8,14.74V17A1,1 0 0,0 9,18H14.73L18.73,22L20,20.72L3.28,4M9,20V21A1,1 0 0,0 10,22H14A1,1 0 0,0 15,21V20H9Z" /></svg>
